X:190
T:Da Shaalds O'Foula
C:Joe Buchanan's Scottish Tome - Page 275.1
I:275 1
Z:Carl Allison
R:Jig
L:1/8
M:6/8
K:G
D | E2 G G2e | edB BAG | G2B A2B | G2A GED |
E2 G G2e | edB BAG | G2B ABc | d3 d2 z :|
edB ABd | edB BAG | g2 B A2 B | G2 A GED|
edB ABd | edB BAG | g2 B ABc | d3 d2 z :|

